assets/gear.svg

<svg xmlns="http://www.w3.org/2000/svg" viewBox="0 0 512 512"><path d="M504.265 315.978c0-8.652-4.607-16.844-12.359-21.392l-32.908-18.971a199.182 199.182 0 0 0 0-39.23l32.908-18.971c7.752-4.548 12.359-12.74 12.359-21.392 0-21.267-49.318-128.176-84.519-128.176-4.244 0-8.51 1.093-12.367 3.357l-32.78 18.969a195.058 195.058 0 0 0-34.068-19.744v-37.94c0-11.226-7.484-21.035-18.326-23.875C300.654 2.871 278.425 0 256.181 0a257.698 257.698 0 0 0-66.121 8.613c-10.842 2.84-18.326 12.649-18.326 23.875v37.94a195.058 195.058 0 0 0-34.068 19.744l-32.78-18.969a24.36 24.36 0 0 0-12.367-3.357h-.007C60.048 67.846 8 169.591 8 196.022c0 8.652 4.607 16.844 12.359 21.392l32.908 18.971a199.182 199.182 0 0 0 0 39.23l-32.908 18.971C12.607 299.134 8 307.326 8 315.978c0 21.267 49.318 128.176 84.519 128.176 4.244 0 8.51-1.093 12.367-3.357l32.78-18.969a195.058 195.058 0 0 0 34.068 19.744v37.94c0 11.226 7.484 21.035 18.326 23.875 21.551 5.742 43.78 8.613 66.024 8.613 22.246 0 44.506-2.871 66.121-8.613 10.842-2.84 18.326-12.649 18.326-23.875v-37.94a195.058 195.058 0 0 0 34.068-19.744l32.78 18.969a24.36 24.36 0 0 0 12.367 3.357c32.463 0 84.519-101.731 84.519-128.176Zm-88.904 73.981c-23.8-13.773-11.26-6.515-43.656-25.264-42.056 30.395-32.33 24.731-79.174 45.887v50.238a210.138 210.138 0 0 1-36.438 3.18 208.924 208.924 0 0 1-36.359-3.176v-50.242c-46.955-21.206-37.182-15.538-79.174-45.887l-43.636 25.254a207.379 207.379 0 0 1-36.407-63.109c21.126-12.177 11.844-6.826 43.571-25.117-2.539-25.64-3.811-35.644-3.811-45.683 0-10.022 1.268-20.08 3.811-45.763-31.89-18.385-22.517-12.982-43.584-25.125a207.107 207.107 0 0 1 36.4-63.111c23.8 13.773 11.26 6.515 43.656 25.264 42.056-30.395 32.33-24.731 79.174-45.887V51.18A210.146 210.146 0 0 1 256.172 48c15.425 0 27.954 1.694 36.359 3.176v50.242c46.955 21.206 37.182 15.538 79.174 45.887l43.638-25.254a207.414 207.414 0 0 1 36.405 63.109c-21.126 12.177-11.844 6.826-43.571 25.117 2.539 25.64 3.811 35.644 3.811 45.683 0 10.022-1.268 20.08-3.811 45.763 31.89 18.385 22.517 12.982 43.584 25.125a207.107 207.107 0 0 1-36.4 63.111ZM256.133 160c-52.875 0-96 43.125-96 96s43.125 96 96 96 96-43.125 96-96-43.125-96-96-96Zm0 144c-26.467 0-48-21.533-48-48s21.533-48 48-48 48 21.533 48 48-21.534 48-48 48Z"/></svg>

<svg xmlns="http://www.w3.org/2000/svg" viewBox="0 0 512 512"><!-- Font Awesome Pro 6.0.0-alpha2 by @fontawesome - https://fontawesome.com License - https://fontawesome.com/license (Commercial License) --><path d="M504.265 315.978C504.265 307.326 499.658 299.134 491.906 294.586L458.998 275.615C459.643 269.099 459.966 262.549 459.966 256S459.643 242.901 458.998 236.385L491.906 217.414C499.658 212.866 504.265 204.674 504.265 196.022C504.265 174.755 454.947 67.846 419.746 67.846C415.502 67.846 411.236 68.939 407.379 71.203L374.599 90.172C363.888 82.43 352.533 75.848 340.531 70.428V32.488C340.531 21.262 333.047 11.453 322.205 8.613C300.654 2.871 278.425 0 256.181 0C233.935 0 211.675 2.871 190.06 8.613C179.218 11.453 171.734 21.262 171.734 32.488V70.428C159.732 75.848 148.377 82.43 137.666 90.172L104.886 71.203C101.031 68.939 96.763 67.846 92.519 67.846C92.517 67.846 92.514 67.846 92.512 67.846C60.048 67.846 8 169.591 8 196.022C8 204.674 12.607 212.866 20.359 217.414L53.267 236.385C52.622 242.901 52.299 249.451 52.299 256S52.622 269.099 53.267 275.615L20.359 294.586C12.607 299.134 8 307.326 8 315.978C8 337.245 57.318 444.154 92.519 444.154C96.763 444.154 101.029 443.061 104.886 440.797L137.666 421.828C148.377 429.57 159.732 436.152 171.734 441.572V479.512C171.734 490.738 179.218 500.547 190.06 503.387C211.611 509.129 233.84 512 256.084 512C278.33 512 300.59 509.129 322.205 503.387C333.047 500.547 340.531 490.738 340.531 479.512V441.572C352.533 436.152 363.888 429.57 374.599 421.828L407.379 440.797C411.234 443.061 415.502 444.154 419.746 444.154C452.209 444.154 504.265 342.423 504.265 315.978ZM415.361 389.959C391.561 376.186 404.101 383.444 371.705 364.695C329.649 395.09 339.375 389.426 292.531 410.582V460.82C279.236 463.161 266.948 464 256.093 464C240.669 464 228.14 462.306 219.734 460.824V410.582C172.779 389.376 182.552 395.044 140.56 364.695C108.748 383.105 117.896 377.811 96.924 389.949C81.181 371.256 68.849 349.895 60.517 326.84C81.643 314.663 72.361 320.014 104.088 301.723C101.549 276.083 100.277 266.079 100.277 256.04C100.277 246.018 101.545 235.96 104.088 210.277C72.198 191.892 81.571 197.295 60.504 185.152C68.818 162.109 81.187 140.686 96.904 122.041C120.704 135.814 108.164 128.556 140.56 147.305C182.616 116.91 172.89 122.574 219.734 101.418V51.18C233.029 48.839 245.318 48 256.172 48C271.597 48 284.126 49.694 292.531 51.176V101.418C339.486 122.624 329.713 116.956 371.705 147.305C405.655 127.657 394.228 134.27 415.343 122.051C431.084 140.744 443.416 162.105 451.748 185.16C430.622 197.337 439.904 191.986 408.177 210.277C410.716 235.917 411.988 245.921 411.988 255.96C411.988 265.982 410.72 276.04 408.177 301.723C440.067 320.108 430.694 314.705 451.761 326.848C443.447 349.891 431.078 371.314 415.361 389.959ZM256.133 160C203.258 160 160.133 203.125 160.133 256S203.258 352 256.133 352S352.133 308.875 352.133 256S309.008 160 256.133 160ZM256.133 304C229.666 304 208.133 282.467 208.133 256S229.666 208 256.133 208S304.133 229.533 304.133 256S282.599 304 256.133 304Z "></path></svg>
